images/32224.svg

<?xml version="1.0" encoding="UTF-8"?>
<svg xmlns="http://www.w3.org/2000/svg" xmlns:xlink="http://www.w3.org/1999/xlink" width="300pt" height="300pt" viewBox="0 0 300 300" version="1.1">
<defs>
<g>
<symbol overflow="visible" id="glyph0-0">
<path style="stroke:none;" d="M 0.59375 2.125 L 0.59375 -8.46875 L 6.59375 -8.46875 L 6.59375 2.125 Z M 1.265625 1.453125 L 5.9375 1.453125 L 5.9375 -7.78125 L 1.265625 -7.78125 Z M 1.265625 1.453125 "/>
</symbol>
<symbol overflow="visible" id="glyph0-1">
<path style="stroke:none;" d="M 1.171875 -8.75 L 2.765625 -8.75 L 6.65625 -1.4375 L 6.65625 -8.75 L 7.796875 -8.75 L 7.796875 0 L 6.203125 0 L 2.328125 -7.3125 L 2.328125 0 L 1.171875 0 Z M 1.171875 -8.75 "/>
</symbol>
<symbol overflow="visible" id="glyph0-2">
<path style="stroke:none;" d="M 4.734375 -7.953125 C 3.867188 -7.953125 3.179688 -7.628906 2.671875 -6.984375 C 2.171875 -6.347656 1.921875 -5.472656 1.921875 -4.359375 C 1.921875 -3.265625 2.171875 -2.394531 2.671875 -1.75 C 3.179688 -1.113281 3.867188 -0.796875 4.734375 -0.796875 C 5.585938 -0.796875 6.265625 -1.113281 6.765625 -1.75 C 7.273438 -2.394531 7.53125 -3.265625 7.53125 -4.359375 C 7.53125 -5.472656 7.273438 -6.347656 6.765625 -6.984375 C 6.265625 -7.628906 5.585938 -7.953125 4.734375 -7.953125 Z M 4.734375 -8.90625 C 5.953125 -8.90625 6.925781 -8.492188 7.65625 -7.671875 C 8.394531 -6.847656 8.765625 -5.742188 8.765625 -4.359375 C 8.765625 -2.984375 8.394531 -1.882812 7.65625 -1.0625 C 6.925781 -0.238281 5.953125 0.171875 4.734375 0.171875 C 3.503906 0.171875 2.519531 -0.238281 1.78125 -1.0625 C 1.039062 -1.882812 0.671875 -2.984375 0.671875 -4.359375 C 0.671875 -5.742188 1.039062 -6.847656 1.78125 -7.671875 C 2.519531 -8.492188 3.503906 -8.90625 4.734375 -8.90625 Z M 4.734375 -8.90625 "/>
</symbol>
<symbol overflow="visible" id="glyph0-3">
<path style="stroke:none;" d="M 7.734375 -8.078125 L 7.734375 -6.828125 C 7.328125 -7.203125 6.898438 -7.476562 6.453125 -7.65625 C 6.003906 -7.84375 5.523438 -7.9375 5.015625 -7.9375 C 4.015625 -7.9375 3.25 -7.628906 2.71875 -7.015625 C 2.1875 -6.398438 1.921875 -5.515625 1.921875 -4.359375 C 1.921875 -3.210938 2.1875 -2.332031 2.71875 -1.71875 C 3.25 -1.101562 4.015625 -0.796875 5.015625 -0.796875 C 5.523438 -0.796875 6.003906 -0.890625 6.453125 -1.078125 C 6.898438 -1.265625 7.328125 -1.539062 7.734375 -1.90625 L 7.734375 -0.671875 C 7.316406 -0.390625 6.875 -0.175781 6.40625 -0.03125 C 5.945312 0.101562 5.460938 0.171875 4.953125 0.171875 C 3.617188 0.171875 2.570312 -0.234375 1.8125 -1.046875 C 1.050781 -1.859375 0.671875 -2.960938 0.671875 -4.359375 C 0.671875 -5.765625 1.050781 -6.875 1.8125 -7.6875 C 2.570312 -8.5 3.617188 -8.90625 4.953125 -8.90625 C 5.472656 -8.90625 5.960938 -8.832031 6.421875 -8.6875 C 6.890625 -8.550781 7.328125 -8.347656 7.734375 -8.078125 Z M 7.734375 -8.078125 "/>
</symbol>
<symbol overflow="visible" id="glyph0-4">
<path style="stroke:none;" d="M 1.125 -9.125 L 2.203125 -9.125 L 2.203125 0 L 1.125 0 Z M 1.125 -9.125 "/>
</symbol>
</g>
</defs>
<g id="surface49753">
<rect x="0" y="0" width="300" height="300" style="fill:rgb(100%,100%,100%);fill-opacity:1;stroke:none;"/>
<path style="fill:none;stroke-width:1.2;stroke-linecap:butt;stroke-linejoin:miter;stroke:rgb(0%,0%,0%);stroke-opacity:1;stroke-miterlimit:10;" d="M 35.25 212.707031 L 49.679688 207.398438 "/>
<path style="fill:none;stroke-width:1.2;stroke-linecap:butt;stroke-linejoin:miter;stroke:rgb(0%,0%,100%);stroke-opacity:1;stroke-miterlimit:10;" d="M 49.679688 207.398438 L 64.109375 202.089844 "/>
<path style="fill:none;stroke-width:1.2;stroke-linecap:butt;stroke-linejoin:miter;stroke:rgb(0%,0%,100%);stroke-opacity:1;stroke-miterlimit:10;" d="M 64.109375 202.089844 L 66.726562 186.941406 "/>
<path style="fill:none;stroke-width:1.2;stroke-linecap:butt;stroke-linejoin:miter;stroke:rgb(0%,0%,0%);stroke-opacity:1;stroke-miterlimit:10;" d="M 66.726562 186.941406 L 69.34375 171.789062 "/>
<path style="fill:none;stroke-width:1.2;stroke-linecap:butt;stroke-linejoin:miter;stroke:rgb(0%,0%,0%);stroke-opacity:1;stroke-miterlimit:10;" d="M 87.730469 221.773438 L 75.917969 211.933594 "/>
<path style="fill:none;stroke-width:1.2;stroke-linecap:butt;stroke-linejoin:miter;stroke:rgb(0%,0%,100%);stroke-opacity:1;stroke-miterlimit:10;" d="M 75.917969 211.933594 L 64.109375 202.089844 "/>
<path style=" stroke:none;fill-rule:nonzero;fill:rgb(100%,100%,100%);fill-opacity:1;" d="M 60.109375 195.089844 L 69.109375 195.089844 L 69.109375 209.089844 L 60.109375 209.089844 Z M 60.109375 195.089844 "/>
<g style="fill:rgb(0%,0%,100%);fill-opacity:1;">
  <use xlink:href="#glyph0-1" x="60.109375" y="206.228516"/>
</g>
<path style="fill:none;stroke-width:1.2;stroke-linecap:butt;stroke-linejoin:miter;stroke:rgb(0%,0%,0%);stroke-opacity:1;stroke-miterlimit:10;" d="M 69.34375 171.789062 L 98.203125 161.175781 "/>
<path style="fill:none;stroke-width:1.2;stroke-linecap:butt;stroke-linejoin:miter;stroke:rgb(0%,0%,0%);stroke-opacity:1;stroke-miterlimit:10;" d="M 98.203125 161.175781 L 110.015625 171.015625 "/>
<path style="fill:none;stroke-width:1.2;stroke-linecap:butt;stroke-linejoin:miter;stroke:rgb(0%,0%,100%);stroke-opacity:1;stroke-miterlimit:10;" d="M 110.015625 171.015625 L 121.824219 180.859375 "/>
<path style="fill:none;stroke-width:1.2;stroke-linecap:butt;stroke-linejoin:miter;stroke:rgb(0%,0%,100%);stroke-opacity:1;stroke-miterlimit:10;" d="M 121.824219 180.859375 L 119.207031 196.007812 "/>
<path style="fill:none;stroke-width:1.2;stroke-linecap:butt;stroke-linejoin:miter;stroke:rgb(0%,0%,0%);stroke-opacity:1;stroke-miterlimit:10;" d="M 119.207031 196.007812 L 116.589844 211.160156 "/>
<path style="fill:none;stroke-width:1.2;stroke-linecap:butt;stroke-linejoin:miter;stroke:rgb(0%,0%,100%);stroke-opacity:1;stroke-miterlimit:10;" d="M 121.824219 180.859375 L 136.253906 175.550781 "/>
<path style="fill:none;stroke-width:1.2;stroke-linecap:butt;stroke-linejoin:miter;stroke:rgb(0%,0%,0%);stroke-opacity:1;stroke-miterlimit:10;" d="M 136.253906 175.550781 L 150.683594 170.242188 "/>
<path style=" stroke:none;fill-rule:nonzero;fill:rgb(100%,100%,100%);fill-opacity:1;" d="M 117.824219 173.859375 L 126.824219 173.859375 L 126.824219 187.859375 L 117.824219 187.859375 Z M 117.824219 173.859375 "/>
<g style="fill:rgb(0%,0%,100%);fill-opacity:1;">
  <use xlink:href="#glyph0-1" x="117.824219" y="184.998047"/>
</g>
<path style="fill:none;stroke-width:1.2;stroke-linecap:butt;stroke-linejoin:miter;stroke:rgb(0%,0%,0%);stroke-opacity:1;stroke-miterlimit:10;" d="M 116.589844 211.160156 L 87.730469 221.773438 "/>
<path style="fill:none;stroke-width:1.2;stroke-linecap:butt;stroke-linejoin:miter;stroke:rgb(0%,0%,0%);stroke-opacity:1;stroke-miterlimit:10;" d="M 150.683594 170.242188 L 172.769531 191.636719 "/>
<path style="fill:none;stroke-width:1.2;stroke-linecap:butt;stroke-linejoin:miter;stroke:rgb(0%,0%,0%);stroke-opacity:1;stroke-miterlimit:10;" d="M 157.925781 167.1875 L 175.59375 184.300781 "/>
<path style="fill:none;stroke-width:1.2;stroke-linecap:butt;stroke-linejoin:miter;stroke:rgb(0%,0%,0%);stroke-opacity:1;stroke-miterlimit:10;" d="M 153.640625 139.636719 L 150.683594 170.242188 "/>
<path style="fill:none;stroke-width:1.2;stroke-linecap:butt;stroke-linejoin:miter;stroke:rgb(0%,0%,0%);stroke-opacity:1;stroke-miterlimit:10;" d="M 172.769531 191.636719 L 203.265625 187.710938 "/>
<path style="fill:none;stroke-width:1.2;stroke-linecap:butt;stroke-linejoin:miter;stroke:rgb(0%,0%,0%);stroke-opacity:1;stroke-miterlimit:10;" d="M 203.265625 187.710938 L 218.066406 214.664062 "/>
<path style="fill:none;stroke-width:1.2;stroke-linecap:butt;stroke-linejoin:miter;stroke:rgb(0%,0%,0%);stroke-opacity:1;stroke-miterlimit:10;" d="M 211.089844 186.921875 L 222.925781 208.484375 "/>
<path style="fill:none;stroke-width:1.2;stroke-linecap:butt;stroke-linejoin:miter;stroke:rgb(0%,0%,0%);stroke-opacity:1;stroke-miterlimit:10;" d="M 219.210938 161.417969 L 203.265625 187.710938 "/>
<path style="fill:none;stroke-width:1.2;stroke-linecap:butt;stroke-linejoin:miter;stroke:rgb(0%,0%,0%);stroke-opacity:1;stroke-miterlimit:10;" d="M 218.066406 214.664062 L 248.804688 215.324219 "/>
<path style="fill:none;stroke-width:1.2;stroke-linecap:butt;stroke-linejoin:miter;stroke:rgb(0%,0%,0%);stroke-opacity:1;stroke-miterlimit:10;" d="M 248.804688 215.324219 L 264.75 189.03125 "/>
<path style="fill:none;stroke-width:1.2;stroke-linecap:butt;stroke-linejoin:miter;stroke:rgb(0%,0%,0%);stroke-opacity:1;stroke-miterlimit:10;" d="M 244.214844 208.945312 L 256.96875 187.910156 "/>
<path style="fill:none;stroke-width:1.2;stroke-linecap:butt;stroke-linejoin:miter;stroke:rgb(0%,0%,0%);stroke-opacity:1;stroke-miterlimit:10;" d="M 264.75 189.03125 L 249.953125 162.078125 "/>
<path style="fill:none;stroke-width:1.2;stroke-linecap:butt;stroke-linejoin:miter;stroke:rgb(0%,0%,0%);stroke-opacity:1;stroke-miterlimit:10;" d="M 249.953125 162.078125 L 219.210938 161.417969 "/>
<path style="fill:none;stroke-width:1.2;stroke-linecap:butt;stroke-linejoin:miter;stroke:rgb(0%,0%,0%);stroke-opacity:1;stroke-miterlimit:10;" d="M 246.722656 169.246094 L 222.128906 168.714844 "/>
<path style="fill:none;stroke-width:1.2;stroke-linecap:butt;stroke-linejoin:miter;stroke:rgb(0%,0%,0%);stroke-opacity:1;stroke-miterlimit:10;" d="M 219.210938 161.417969 L 213.902344 146.988281 "/>
<path style="fill:none;stroke-width:1.2;stroke-linecap:butt;stroke-linejoin:miter;stroke:rgb(100%,0%,0%);stroke-opacity:1;stroke-miterlimit:10;" d="M 213.902344 146.988281 L 208.59375 132.558594 "/>
<path style="fill:none;stroke-width:1.2;stroke-linecap:butt;stroke-linejoin:miter;stroke:rgb(100%,0%,0%);stroke-opacity:1;stroke-miterlimit:10;" d="M 208.59375 132.558594 L 194.003906 127.710938 "/>
<path style="fill:none;stroke-width:1.2;stroke-linecap:butt;stroke-linejoin:miter;stroke:rgb(0%,0%,0%);stroke-opacity:1;stroke-miterlimit:10;" d="M 194.003906 127.710938 L 179.414062 122.863281 "/>
<path style=" stroke:none;fill-rule:nonzero;fill:rgb(100%,100%,100%);fill-opacity:1;" d="M 203.59375 125.558594 L 213.59375 125.558594 L 213.59375 139.558594 L 203.59375 139.558594 Z M 203.59375 125.558594 "/>
<g style="fill:rgb(100%,0%,0%);fill-opacity:1;">
  <use xlink:href="#glyph0-2" x="203.59375" y="136.697266"/>
</g>
<path style="fill:none;stroke-width:1.2;stroke-linecap:butt;stroke-linejoin:miter;stroke:rgb(0%,0%,0%);stroke-opacity:1;stroke-miterlimit:10;" d="M 179.414062 122.863281 L 153.640625 139.636719 "/>
<path style="fill:none;stroke-width:1.2;stroke-linecap:butt;stroke-linejoin:miter;stroke:rgb(0%,0%,0%);stroke-opacity:1;stroke-miterlimit:10;" d="M 172.890625 118.476562 L 152.269531 131.894531 "/>
<path style="fill:none;stroke-width:1.2;stroke-linecap:butt;stroke-linejoin:miter;stroke:rgb(0%,0%,0%);stroke-opacity:1;stroke-miterlimit:10;" d="M 177.773438 92.160156 L 179.414062 122.863281 "/>
<path style="fill:none;stroke-width:1.2;stroke-linecap:butt;stroke-linejoin:miter;stroke:rgb(0%,0%,0%);stroke-opacity:1;stroke-miterlimit:10;" d="M 153.640625 139.636719 L 126.230469 125.703125 "/>
<path style="fill:none;stroke-width:1.2;stroke-linecap:butt;stroke-linejoin:miter;stroke:rgb(0%,0%,0%);stroke-opacity:1;stroke-miterlimit:10;" d="M 126.230469 125.703125 L 124.589844 94.996094 "/>
<path style="fill:none;stroke-width:1.2;stroke-linecap:butt;stroke-linejoin:miter;stroke:rgb(0%,0%,0%);stroke-opacity:1;stroke-miterlimit:10;" d="M 133.289062 122.246094 L 131.980469 97.683594 "/>
<path style="fill:none;stroke-width:1.2;stroke-linecap:butt;stroke-linejoin:miter;stroke:rgb(0%,0%,0%);stroke-opacity:1;stroke-miterlimit:10;" d="M 124.589844 94.996094 L 150.363281 78.226562 "/>
<path style="fill:none;stroke-width:1.2;stroke-linecap:butt;stroke-linejoin:miter;stroke:rgb(0%,0%,0%);stroke-opacity:1;stroke-miterlimit:10;" d="M 124.589844 94.996094 L 110.886719 88.03125 "/>
<path style="fill:none;stroke-width:1.2;stroke-linecap:butt;stroke-linejoin:miter;stroke:rgb(0%,80%,0%);stroke-opacity:1;stroke-miterlimit:10;" d="M 110.886719 88.03125 L 97.179688 81.0625 "/>
<path style="fill:none;stroke-width:1.2;stroke-linecap:butt;stroke-linejoin:miter;stroke:rgb(0%,0%,0%);stroke-opacity:1;stroke-miterlimit:10;" d="M 150.363281 78.226562 L 177.773438 92.160156 "/>
<path style="fill:none;stroke-width:1.2;stroke-linecap:butt;stroke-linejoin:miter;stroke:rgb(0%,0%,0%);stroke-opacity:1;stroke-miterlimit:10;" d="M 149.828125 86.070312 L 171.753906 97.214844 "/>
<path style=" stroke:none;fill-rule:nonzero;fill:rgb(100%,100%,100%);fill-opacity:1;" d="M 85.179688 74.0625 L 97.179688 74.0625 L 97.179688 88.0625 L 85.179688 88.0625 Z M 85.179688 74.0625 "/>
<g style="fill:rgb(0%,80%,0%);fill-opacity:1;">
  <use xlink:href="#glyph0-3" x="85.179688" y="85.201172"/>
  <use xlink:href="#glyph0-4" x="93.558594" y="85.201172"/>
</g>
</g>
</svg>

<svg xmlns="http://www.w3.org/2000/svg" xmlns:xlink="http://www.w3.org/1999/xlink" width="300pt" height="300pt" viewBox="0 0 300 300"><defs><symbol overflow="visible"><path d="M.594 2.125V-8.47h6V2.126zm.672-.672h4.671V-7.78h-4.67zm0 0"/></symbol><symbol overflow="visible" id="a"><path d="M1.172-8.75h1.594l3.89 7.313V-8.75h1.14V0H6.204L2.328-7.313V0H1.172zm0 0"/></symbol><symbol overflow="visible" id="b"><path d="M4.734-7.953c-.867 0-1.554.324-2.062.97-.5.635-.75 1.51-.75 2.624 0 1.094.25 1.965.75 2.61.508.637 1.195.953 2.062.953.852 0 1.532-.316 2.032-.953.507-.645.765-1.516.765-2.61 0-1.113-.257-1.988-.764-2.624-.5-.645-1.18-.97-2.032-.97zm0-.953c1.22 0 2.192.414 2.922 1.234.74.824 1.11 1.93 1.11 3.313 0 1.376-.37 2.477-1.11 3.298C6.926-.24 5.953.17 4.734.17c-1.23 0-2.214-.41-2.953-1.234C1.04-1.882.673-2.984.673-4.36c0-1.382.367-2.488 1.11-3.312.738-.82 1.722-1.234 2.952-1.234zm0 0"/></symbol><symbol overflow="visible" id="c"><path d="M7.734-8.078v1.25c-.406-.375-.836-.65-1.28-.828-.45-.188-.93-.282-1.438-.282-1 0-1.766.31-2.297.922-.533.618-.798 1.5-.798 2.657 0 1.15.266 2.028.797 2.64.53.618 1.296.923 2.296.923.507 0 .988-.094 1.437-.28.445-.19.875-.462 1.28-.83V-.67c-.417.28-.858.496-1.327.64-.46.134-.945.204-1.453.204-1.336 0-2.383-.406-3.14-1.22-.762-.81-1.14-1.913-1.14-3.31 0-1.408.378-2.517 1.14-3.33.757-.812 1.804-1.218 3.14-1.218.52 0 1.008.074 1.47.22.468.135.905.338 1.31.608zm0 0"/></symbol><symbol overflow="visible" id="d"><path d="M1.125-9.125h1.078V0H1.125zm0 0"/></symbol></defs><g><path fill="#fff" d="M0 0h300v300H0z"/><path d="M35.25 212.707l14.43-5.31" stroke-width="1.2" stroke="#000" stroke-miterlimit="10" fill="none"/><path d="M49.68 207.398l14.43-5.308M64.11 202.09l2.617-15.15" stroke-width="1.2" stroke="#00f" stroke-miterlimit="10" fill="none"/><path d="M66.727 186.94l2.617-15.15M87.73 221.773l-11.812-9.84" stroke-width="1.2" stroke="#000" stroke-miterlimit="10" fill="none"/><path d="M75.918 211.934l-11.81-9.844" stroke-width="1.2" stroke="#00f" stroke-miterlimit="10" fill="none"/><path d="M60.11 195.09h9v14h-9zm0 0" fill="#fff"/><use xlink:href="#a" x="60.109" y="206.229" fill="#00f"/><path d="M69.344 171.79l28.86-10.614M98.203 161.176l11.813 9.84" stroke-width="1.2" stroke="#000" stroke-miterlimit="10" fill="none"/><path d="M110.016 171.016l11.808 9.843M121.824 180.86l-2.617 15.148" stroke-width="1.2" stroke="#00f" stroke-miterlimit="10" fill="none"/><path d="M119.207 196.008l-2.617 15.152" stroke-width="1.2" stroke="#000" stroke-miterlimit="10" fill="none"/><path d="M121.824 180.86l14.43-5.31" stroke-width="1.2" stroke="#00f" stroke-miterlimit="10" fill="none"/><path d="M136.254 175.55l14.43-5.308" stroke-width="1.2" stroke="#000" stroke-miterlimit="10" fill="none"/><path d="M117.824 173.86h9v14h-9zm0 0" fill="#fff"/><use xlink:href="#a" x="117.824" y="184.998" fill="#00f"/><path d="M116.59 211.16l-28.86 10.613M150.684 170.242l22.086 21.395M157.926 167.188l17.668 17.113M153.64 139.637l-2.956 30.605M172.77 191.637l30.496-3.926M203.266 187.71l14.8 26.954M211.09 186.922l11.836 21.562M219.21 161.418l-15.944 26.293M218.066 214.664l30.74.66M248.805 215.324l15.945-26.293M244.215 208.945l12.754-21.035M264.75 189.03l-14.797-26.952M249.953 162.078l-30.742-.66M246.723 169.246l-24.594-.53M219.21 161.418l-5.308-14.43" stroke-width="1.2" stroke="#000" stroke-miterlimit="10" fill="none"/><path d="M213.902 146.988l-5.308-14.43M208.594 132.56l-14.59-4.85" stroke-width="1.2" stroke="#f00" stroke-miterlimit="10" fill="none"/><path d="M194.004 127.71l-14.59-4.847" stroke-width="1.2" stroke="#000" stroke-miterlimit="10" fill="none"/><path d="M203.594 125.56h10v14h-10zm0 0" fill="#fff"/><use xlink:href="#b" x="203.594" y="136.697" fill="#f00"/><path d="M179.414 122.863l-25.773 16.774M172.89 118.477l-20.62 13.418M177.773 92.16l1.64 30.703M153.64 139.637l-27.41-13.934M126.23 125.703l-1.64-30.707M133.29 122.246l-1.31-24.562M124.59 94.996l25.773-16.77M124.59 94.996l-13.703-6.965" stroke-width="1.2" stroke="#000" stroke-miterlimit="10" fill="none"/><path d="M110.887 88.03L97.18 81.063" stroke-width="1.2" stroke="#0c0" stroke-miterlimit="10" fill="none"/><path d="M150.363 78.227l27.41 13.933M149.828 86.07l21.926 11.145" stroke-width="1.2" stroke="#000" stroke-miterlimit="10" fill="none"/><path d="M85.18 74.063h12v14h-12zm0 0" fill="#fff"/><g fill="#0c0"><use xlink:href="#c" x="85.18" y="85.201"/><use xlink:href="#d" x="93.559" y="85.201"/></g></g></svg>
